X:69
T:Jenny Nettles
M:2/4
L:1/8
K:Em
AB |c2 B2 | A2 a2 | ef ge | dB GB | 
c2 B2 | A2 a2 | ge dg | e2 :|
|:AB|cd ed | cd ec | Bc dc | Bc dB |
cd ed | cd ea | ge fd | e2 :|
|:AB|cd ef | g>a ge | ga ge | d/2c/2B/2A/2 GB |
cd ef | ga ge | ab ag | a2 A2:|
|:B|cd eA | cd eA | d/2c/2B/2A/2 Bd | BG dB |
cd eA | cd ea | ge fd | e2 A:|
%%vskip 1.5cm
